src/assets/filled/Gemini2.svg

<svg width="24" height="24" viewBox="0 0 24 24"  xmlns="http://www.w3.org/2000/svg">
<path d="M23.5299 6.47L21.5299 4.47C21.3899 4.33 21.1999 4.25 20.9999 4.25C20.7999 4.25 20.6099 4.33 20.4699 4.47L18.4699 6.47C18.1799 6.76 18.1799 7.24 18.4699 7.53C18.7599 7.82 19.2399 7.82 19.5299 7.53L20.2499 6.81V11C20.2499 14.58 18.5799 16.25 14.9999 16.25H12.7499V3.81L14.7699 5.83C14.9199 5.98 15.1099 6.05 15.2999 6.05C15.4899 6.05 15.6799 5.98 15.8299 5.83C16.1199 5.54 16.1199 5.06 15.8299 4.77L12.5299 1.47C12.3899 1.33 12.1999 1.25 11.9999 1.25C11.7999 1.25 11.6099 1.33 11.4699 1.47L8.16994 4.77C7.87994 5.06 7.87994 5.54 8.16994 5.83C8.45994 6.12 8.93994 6.12 9.22994 5.83L11.2499 3.81V16.25H8.99994C5.41994 16.25 3.74994 14.58 3.74994 11V6.81L4.46994 7.53C4.61994 7.68 4.80994 7.75 4.99994 7.75C5.18994 7.75 5.37994 7.68 5.52994 7.53C5.81994 7.24 5.81994 6.76 5.52994 6.47L3.52994 4.47C3.38994 4.33 3.19994 4.25 2.99994 4.25C2.79994 4.25 2.60994 4.33 2.46994 4.47L0.469941 6.47C0.179941 6.76 0.179941 7.24 0.469941 7.53C0.759941 7.82 1.23994 7.82 1.52994 7.53L2.24994 6.81V11C2.24994 15.42 4.57994 17.75 8.99994 17.75H11.2499V22C11.2499 22.41 11.5899 22.75 11.9999 22.75C12.4099 22.75 12.7499 22.41 12.7499 22V17.75H14.9999C19.4199 17.75 21.7499 15.42 21.7499 11V6.81L22.4699 7.53C22.6199 7.68 22.8099 7.75 22.9999 7.75C23.1899 7.75 23.3799 7.68 23.5299 7.53C23.8199 7.24 23.8199 6.76 23.5299 6.47Z" />
<path d="M15 20.75H9C8.59 20.75 8.25 20.41 8.25 20C8.25 19.59 8.59 19.25 9 19.25H15C15.41 19.25 15.75 19.59 15.75 20C15.75 20.41 15.41 20.75 15 20.75Z" />
</svg>

<?xml version="1.0" encoding="UTF-8"?>
<svg width="24" height="24" viewBox="0 0 24 24" xmlns="http://www.w3.org/2000/svg">
 <path d="m23.53 6.47-2-2c-0.14-0.14-0.33-0.22-0.53-0.22s-0.39 0.08-0.53 0.22l-2 2c-0.29 0.29-0.29 0.77 0 1.06s0.77 0.29 1.06 0l0.72-0.72v4.19c0 3.58-1.67 5.25-5.25 5.25h-2.25v-12.44l2.02 2.02c0.15 0.15 0.34 0.22 0.53 0.22s0.38-0.07 0.53-0.22c0.29-0.29 0.29-0.77 0-1.06l-3.3-3.3c-0.14-0.14-0.33-0.22-0.53-0.22s-0.39 0.08-0.53 0.22l-3.3 3.3c-0.29 0.29-0.29 0.77 0 1.06s0.77 0.29 1.06 0l2.02-2.02v12.44h-2.25c-3.58 0-5.25-1.67-5.25-5.25v-4.19l0.72 0.72c0.15 0.15 0.34 0.22 0.53 0.22s0.38-0.07 0.53-0.22c0.29-0.29 0.29-0.77 0-1.06l-2-2c-0.14-0.14-0.33-0.22-0.53-0.22s-0.39 0.08-0.53 0.22l-2 2c-0.29 0.29-0.29 0.77 0 1.06s0.77 0.29 1.06 0l0.72-0.72v4.19c0 4.42 2.33 6.75 6.75 6.75h2.25v4.25c0 0.41 0.34 0.75 0.75 0.75s0.75-0.34 0.75-0.75v-4.25h2.25c4.42 0 6.75-2.33 6.75-6.75v-4.19l0.72 0.72c0.15 0.15 0.34 0.22 0.53 0.22s0.38-0.07 0.53-0.22c0.29-0.29 0.29-0.77 0-1.06z"/>
 <path d="m15 20.75h-6c-0.41 0-0.75-0.34-0.75-0.75s0.34-0.75 0.75-0.75h6c0.41 0 0.75 0.34 0.75 0.75s-0.34 0.75-0.75 0.75z"/>
</svg>
